X:1
T:Beyond This Land of Parting
T:Asa Brooks Everett
T:Beyond This Land of Parting
T:Public Domain
T:Public Domain
C:Asa Brooks Everett
Z:Public Domain
%%score 1 2
L:1/8
M:4/4
K:G
V:1 treble 
V:2 bass 
V:1
 [B,D]2 | [DG][DG][DG][DG] [DG]2 [GB]2 | [Gd]2 [Gd][Ge] [Gd]2 [GB]2 | %3
w: 1.~Be-|yond this land of part- ing,|los- ing and leav- ing,|
w: 2.~Be-|yond this land of toil- ing,|sow- ing and reap- ing,|
w: 3.~Be-|yond this land of sin- ning,|faint- ing and fail- ing,|
w: 4.~Be-|yond this land of wait- ing,|seek- ing and sigh- ing,|
 [FA][FA][FA][FA] [FA]2 [Fd]2 | [GB]2 [GB][Gc] [GB]2 [B,D]2 | [DG][DG][DG][DG] [DG]2 [GB]2 | %6
w: Far be- yond the loss- es,|dark- en- ing this, And|far be- yond the tak- ing|
w: Far be- yond the sha- dows,|dark- en- ing this, And|far be- yond the sigh- ing,|
w: Far be- yond the doubt- ings,|dark- en- ing this, And|far be- yond the griefs and|
w: Far be- yond the sor- rows,|dark- en- ing this, And|far be- yond the pain and|
 [Gd]2 [Gd][Ge] [Gd]2 [GB]2 | [FA][FA][FA][FA] [GB]2 [DA]2 | [DG]6 ||"^Refrain" [B,G][DF] | %10
w: and the be- reav- ing|Lies the sum- mer land of|bliss.||
w: moan- ing and weep- ing,|Lies the sum- mer land of|bliss.|Land be-|
w: dan- gers be- fall- ing,|Lies the sum- mer land of|bliss.||
w: sick- ness and dy- ing|Lies the sum- mer land of|bliss.||
 [CE]4- [CE][DF][EG][CE] | [B,D]6 [B,G][DA] | [GB]4- [GB][Ac][Bd][GB] | [FA]6 [GB][Gd] | %14
w: ||||
w: yond, * so fair and|bright! Land be-|yond, * where is no|night! Sum- mer|
w: ||||
w: ||||
 [Ge]4- [Ge][Ec][Ec][Ge] | [Gd]6 [GB]2 [FA][FA][FA][FA] [GB]2 [DA]2 | [DG]6 |] %17
w: |||
w: land, * God is its|Light. O hap- py sum- mer land of|bliss!|
w: |||
w: |||
V:2
 G,2 | [G,B,][G,B,][G,B,][G,B,] [G,B,]2 [G,D]2 | [G,B,]2 [G,B,][G,C] [G,B,]2 [G,D]2 | %3
 [D,D][D,D][D,D][D,D] [D,D]2 [D,D]2 | [G,D]2 [G,D][G,E] [G,D]2 G,2 | %5
 [G,B,][G,B,][G,B,][G,B,] [G,B,]2 [G,D]2 | [G,B,]2 [G,B,][G,C] [G,B,]2 [G,D]2 | %7
 [D,D][D,D][D,D][D,D] [D,D]2 [D,C]2 | [G,B,]6 || z2 | ([C,G,]2 [C,G,]2 [C,G,])[C,G,][C,G,][C,G,] | %11
 [G,,G,]6 z2 | ([G,D]2 [G,D]2 [G,D])[G,D][G,D][G,D] | [D,D]6 z2 | %14
 [C,C]2 [C,C]2 [C,C][C,G,][C,G,][C,C] | [G,B,]6 [G,D]2 [D,D][D,D][D,D][D,D] [D,D]2 [D,C]2 | %16
 [G,B,]6 |] %17

